svg/spark.svg

<svg width="52" height="52" viewBox="0 0 52 52" fill="none" xmlns="http://www.w3.org/2000/svg">
<path fill-rule="evenodd" clip-rule="evenodd" d="M45.3183 41.6148L27.5882 5.06166C27.2941 4.44618 26.6743 4.0625 25.9988 4.0625C25.3233 4.0625 24.7034 4.45417 24.4014 5.06166L6.67926 41.6148C6.35342 42.2863 6.48058 43.0856 6.9892 43.6291C7.49781 44.1647 8.29253 44.3325 8.97598 44.0368L20.6344 39.001C20.698 38.9691 20.7695 38.9611 20.849 38.9611C21.0715 38.9611 21.2623 39.097 21.3417 39.2888L24.3616 46.8184C24.6318 47.4899 25.2835 47.9375 26.0067 47.9375H26.0147C26.7378 47.9375 27.3895 47.4899 27.6597 46.8104L30.6081 39.2888C30.6876 39.1049 30.8783 38.9691 31.0929 38.9691C31.1564 38.9691 31.22 38.977 31.2757 39.001L43.0374 44.0528C43.7209 44.3485 44.5076 44.1807 45.0163 43.6451C45.5249 43.1096 45.6441 42.2863 45.3183 41.6148ZM25.5655 7.09603L24.8109 38.0491C24.7946 38.7152 25.3302 39.2639 25.9964 39.2639C26.6654 39.2639 27.202 38.7108 27.1818 38.0421L26.2461 7.09404C26.2405 6.91012 26.0898 6.7639 25.9058 6.7639C25.721 6.7639 25.57 6.9113 25.5655 7.09603Z" fill="url(#paint0_linear_1891_16914)"/>
<defs>
<linearGradient id="paint0_linear_1891_16914" x1="26.4045" y1="47.927" x2="26.4045" y2="4.0625" gradientUnits="userSpaceOnUse">
<stop stop-color="#006DEE"/>
<stop offset="0.3113" stop-color="#1E9DF5"/>
<stop offset="0.6136" stop-color="#36C5FA"/>
<stop offset="0.8531" stop-color="#45DDFE"/>
<stop offset="1" stop-color="#4BE6FF"/>
</linearGradient>
</defs>
</svg>

<svg xmlns="http://www.w3.org/2000/svg" width="52" height="52" fill="none"><path fill="url(#a)" fill-rule="evenodd" d="M45.318 41.615 27.588 5.062c-.294-.616-.914-1-1.59-1-.675 0-1.295.392-1.597 1L6.68 41.615a1.8 1.8 0 0 0 .31 2.014 1.77 1.77 0 0 0 1.987.408L20.634 39a.5.5 0 0 1 .215-.04c.223 0 .413.136.493.328l3.02 7.53c.27.67.922 1.118 1.645 1.118h.008c.723 0 1.375-.447 1.645-1.127l2.948-7.521a.536.536 0 0 1 .668-.288l11.761 5.052c.684.296 1.47.128 1.98-.408a1.82 1.82 0 0 0 .301-2.03M25.566 7.096l-.755 30.953a1.186 1.186 0 1 0 2.37-.007l-.935-30.948a.34.34 0 0 0-.68.002" clip-rule="evenodd"/><defs><linearGradient id="a" x1="26.404" x2="26.404" y1="47.927" y2="4.063" gradientUnits="userSpaceOnUse"><stop stop-color="#006DEE"/><stop offset=".311" stop-color="#1E9DF5"/><stop offset=".614" stop-color="#36C5FA"/><stop offset=".853" stop-color="#45DDFE"/><stop offset="1" stop-color="#4BE6FF"/></linearGradient></defs></svg>
